media/costumes/2-glow.svg

<svg width="58" height="84" xmlns="http://www.w3.org/2000/svg"><path fill="#0CC" d="M57.27 69.417c0 1.98-.63 8.7-8.81 12.14-1.92.82-4.03 1.24-6.27 1.24-2.28 0-4.7-.42-7.38-1.29-2.08-.67-5.09-1.51-8.97-2.51-4.76 3.33-8.4 4.76-12.02 4.76-3.79 0-7.39-1.52-10.15-4.27a10.973 10.973 0 0 1-3.23-7.78v-1.94c0-1.22.21-2.84 1-4.59.41-3.57 1.27-7.09 2.56-10.49.35-.98 1.01-2.62 2.85-6.55 1.85-3.87 4.63-7.91 8.48-12.27-.68.09-1.31.13-1.87.13-6.69 0-13.46-4.9-13.46-14.26 0-3.17 1.12-6.37 3.99-11.42.85-1.49 2.03-2.76 3.46-3.71.19-.13.43-.29.7-.48.73-.61 1.58-1.2 2.63-1.85.69-.42 1.42-.77 2.18-1.03 1.79-.62 3.65-1.23 5.55-1.82 2.73-.85 5.22-1.31 7.6-1.41h.12c5.39-.16 10.51.82 15.28 2.93 4.46 1.91 8.04 5.21 10.65 9.82 2.45 4.34 3.57 8.71 3.34 13l-.03.37c-.35 3.97-1.7 7.63-4.03 10.88-.11.16-.24.32-.36.48-.73.92-2.01 2.36-5.39 5.41-1.98 2.07-4.75 4.87-8.43 8.52-.36.52-.75 1.04-1.18 1.55 1.36.36 2.75.82 4.2 1.35l1.6.58c.27-.01.53-.01.79-.01 5.69 0 9.14 2.48 11.04 4.57.05.05.09.1.14.15 2.08 2.38 3.23 5.5 3.41 9.27.01.17.01.35.01.53z"/><path fill="#FFF" d="M46.274 69.414c0 .761-.704 1.436-2.111 2.022-1.35.586-3.343.454-5.981-.396-2.639-.851-6.509-1.922-11.61-3.211-2.405-.294-4.486.234-6.245 1.584-3.05 2.228-5.221 3.342-6.51 3.342-.879 0-1.671-.352-2.375-1.054v-1.933c0-.059.073-.176.221-.351.146-.177.233-.367.264-.57.028-.206.132-.543.308-1.01a32.538 32.538 0 0 1 2.111-9.398c.293-.877 1.113-2.75 2.463-5.62 1.759-3.688 4.954-7.933 9.588-12.735 1.348-1.287 3.283-3.22 5.805-5.797a158.45 158.45 0 0 1 3.343-3.073c1.583-1.521 2.403-2.721 2.463-3.601.116-.176.264-.469.439-.878.058-.644.029-1.521-.088-2.635-.059-.117-.132-.381-.22-.79a27.38 27.38 0 0 1-.308-1.933c-1.76-3.513-5.132-5.27-10.115-5.27-3.343 0-5.894.843-7.653 2.526-.176.058-.41.146-.703.261-.998.639-1.613 1.249-1.848 1.829-1.231 2.846-2.581 4.268-4.046 4.268-1.643 0-2.463-1.084-2.463-3.254 0-.997.85-2.991 2.551-5.981.352-.234.82-.557 1.407-.968.293-.293.82-.674 1.584-1.144a183.956 183.956 0 0 1 5.233-1.715c1.788-.557 3.387-.865 4.794-.924 3.752-.117 7.271.558 10.555 2.022 2.228.939 4.046 2.654 5.454 5.146 1.407 2.493 2.052 4.823 1.935 6.992a10.877 10.877 0 0 1-2.023 5.454c-.703.879-2.198 2.346-4.485 4.397-2.054 2.171-5.22 5.366-9.5 9.588-.352.822-1.144 1.73-2.375 2.727-.059.235-.206.587-.439 1.056-.763 1.35-1.847 2.845-3.255 4.486.058.527-.176 1.144-.703 1.847-.646.998-.968 1.555-.968 1.672-.47 1.114-1.086 2.757-1.848 4.926-.176.704-.47 1.789-.879 3.255a154.08 154.08 0 0 1 5.365-1.496 23.238 23.238 0 0 1 3.958-.352c2.64 0 5.688.646 9.148 1.936.82.294 2.052.733 3.694 1.319.82-.058 1.641-.088 2.463-.088 1.348 0 2.315.322 2.902.968.408.471.644 1.322.703 2.554z"/></svg>

<svg version="1.1" width="58" height="84" xmlns="http://www.w3.org/2000/svg" xmlns:xlink="http://www.w3.org/1999/xlink">
  <!-- Exported by Scratch - http://scratch.mit.edu/ -->
  <g id="ID0.8568254490382969">
    <g id="ID0.7953316839411855">
      <g id="ID0.21732549602165818">
        <path id="ID0.3025646088644862" fill="#00CCCC" d="M 57.270 69.417 C 57.270 71.397 56.640 78.117 48.460 81.557 C 46.540 82.377 44.430 82.797 42.190 82.797 C 39.910 82.797 37.490 82.377 34.810 81.507 C 32.730 80.837 29.720 79.997 25.840 78.997 C 21.080 82.327 17.440 83.757 13.820 83.757 C 10.030 83.757 6.430 82.237 3.670 79.487 C 1.600 77.427 0.440 74.627 0.440 71.707 L 0.440 69.767 C 0.440 68.547 0.650 66.927 1.440 65.177 C 1.850 61.607 2.710 58.087 4 54.687 C 4.350 53.707 5.010 52.067 6.850 48.137 C 8.700 44.267 11.480 40.227 15.330 35.867 C 14.650 35.957 14.020 35.997 13.460 35.997 C 6.770 35.997 0 31.097 0 21.737 C 0 18.567 1.120 15.367 3.990 10.317 C 4.840 8.827 6.020 7.557 7.450 6.607 C 7.640 6.477 7.880 6.317 8.150 6.127 C 8.880 5.517 9.730 4.927 10.780 4.277 C 11.470 3.857 12.200 3.507 12.960 3.247 C 14.750 2.627 16.610 2.017 18.510 1.427 C 21.240 0.577 23.730 0.117 26.110 0.017 L 26.230 0.017 C 31.620 -0.143 36.740 0.837 41.510 2.947 C 45.970 4.857 49.550 8.157 52.160 12.767 C 54.610 17.107 55.730 21.477 55.500 25.767 C 55.490 25.887 55.480 26.007 55.470 26.137 C 55.120 30.107 53.770 33.767 51.440 37.017 C 51.330 37.177 51.200 37.337 51.080 37.497 C 50.350 38.417 49.070 39.857 45.690 42.907 C 43.710 44.977 40.940 47.777 37.260 51.427 C 36.900 51.947 36.510 52.467 36.080 52.977 C 37.440 53.337 38.830 53.797 40.280 54.327 L 41.880 54.907 C 42.150 54.897 42.410 54.897 42.670 54.897 C 48.360 54.897 51.810 57.377 53.710 59.467 C 53.760 59.517 53.800 59.567 53.850 59.617 C 55.930 61.997 57.080 65.117 57.260 68.887 C 57.270 69.057 57.270 69.237 57.270 69.417 Z "/>
      </g>
    </g>
    <g id="ID0.19919521734118462">
      <path id="ID0.017727231606841087" fill="#FFFFFF" d="M 46.274 69.414 C 46.274 70.175 45.570 70.850 44.163 71.436 C 42.813 72.022 40.820 71.890 38.182 71.040 C 35.543 70.189 31.673 69.118 26.572 67.829 C 24.167 67.535 22.086 68.063 20.327 69.413 C 17.277 71.641 15.106 72.755 13.817 72.755 C 12.938 72.755 12.146 72.403 11.442 71.701 L 11.442 69.768 C 11.442 69.709 11.515 69.592 11.663 69.417 C 11.809 69.240 11.896 69.050 11.927 68.847 C 11.955 68.641 12.059 68.304 12.235 67.837 C 12.468 64.616 13.173 61.484 14.346 58.439 C 14.639 57.562 15.459 55.689 16.809 52.819 C 18.568 49.131 21.763 44.886 26.397 40.084 C 27.745 38.797 29.680 36.864 32.202 34.287 C 33.315 33.234 34.431 32.209 35.545 31.214 C 37.128 29.693 37.948 28.493 38.008 27.613 C 38.124 27.437 38.272 27.144 38.447 26.735 C 38.505 26.091 38.476 25.214 38.359 24.100 C 38.300 23.983 38.227 23.719 38.139 23.310 C 38.051 22.900 37.948 22.256 37.831 21.377 C 36.071 17.864 32.699 16.107 27.716 16.107 C 24.373 16.107 21.822 16.950 20.063 18.633 C 19.887 18.691 19.653 18.779 19.360 18.894 C 18.362 19.533 17.747 20.143 17.512 20.723 C 16.281 23.569 14.931 24.991 13.466 24.991 C 11.823 24.991 11.003 23.907 11.003 21.737 C 11.003 20.740 11.853 18.746 13.554 15.756 C 13.906 15.522 14.374 15.199 14.961 14.788 C 15.254 14.495 15.781 14.114 16.545 13.644 C 18.244 13.058 19.988 12.487 21.778 11.929 C 23.566 11.372 25.165 11.064 26.572 11.005 C 30.324 10.888 33.843 11.563 37.127 13.027 C 39.355 13.966 41.173 15.681 42.581 18.173 C 43.988 20.666 44.633 22.996 44.516 25.165 C 44.340 27.159 43.665 28.977 42.493 30.619 C 41.790 31.498 40.295 32.965 38.008 35.016 C 35.954 37.187 32.788 40.382 28.508 44.604 C 28.156 45.426 27.364 46.334 26.133 47.331 C 26.074 47.566 25.927 47.918 25.694 48.387 C 24.931 49.737 23.847 51.232 22.439 52.873 C 22.497 53.400 22.263 54.017 21.736 54.720 C 21.090 55.718 20.768 56.275 20.768 56.392 C 20.298 57.506 19.682 59.149 18.920 61.318 C 18.744 62.022 18.450 63.107 18.041 64.573 C 19.389 64.163 21.177 63.664 23.406 63.077 C 24.755 62.844 26.074 62.725 27.364 62.725 C 30.004 62.725 33.052 63.371 36.512 64.661 C 37.332 64.955 38.564 65.394 40.206 65.980 C 41.026 65.922 41.847 65.892 42.669 65.892 C 44.017 65.892 44.984 66.214 45.571 66.860 C 45.979 67.331 46.215 68.182 46.274 69.414 Z "/>
    </g>
  </g>
</svg>
